build/system/ArrowDownSolid.svg

<svg xmlns="http://www.w3.org/2000/svg" fill="none" viewBox="0 0 24 24" focusable="false"><path d="M0 0H24V24H0z"/><path fill="#74767B" fill-rule="evenodd" d="M12 3C16.9706 3 21 7.02944 21 12C21 16.9706 16.9706 21 12 21C7.02944 21 3 16.9706 3 12C3 7.02944 7.02944 3 12 3ZM7.44183 12.5C7.44183 12.32 7.51183 12.15 7.65183 12.02C7.92183 11.78 8.33183 11.8 8.57183 12.06L11.4055 14.9476L11.4055 8C11.4055 7.64102 11.6965 7.35 12.0555 7.35C12.4145 7.35 12.7055 7.64102 12.7055 8L12.7055 14.9406L15.5218 12.04C15.7618 11.77 16.1718 11.76 16.4418 12C16.7018 12.24 16.7218 12.65 16.4818 12.92L12.5755 16.98C12.2955 17.29 11.8155 17.29 11.5355 16.98L7.61182 12.94C7.49183 12.81 7.44183 12.66 7.44183 12.5Z"/></svg>

<svg xmlns="http://www.w3.org/2000/svg" fill="none" viewBox="0 0 24 24" focusable="false"><path fill="#74767B" fill-rule="evenodd" d="M12 3c4.97 0 9 4.02 9 9a9 9 0 0 1-9 9c-4.98 0-9-4.03-9-9 0-4.98 4.02-9 9-9m-4.56 9.5c0-.18.07-.35.21-.48.27-.24.68-.22.92.04l2.83 2.88V8c0-.36.29-.65.65-.65s.65.29.65.65v6.94l2.82-2.9a.65.65 0 0 1 .92-.04c.26.24.28.65.04.92l-3.91 4.06c-.28.31-.76.31-1.04 0l-3.92-4.04a.63.63 0 0 1-.17-.44"/></svg>
